Papirus/32x32/emblems/vcs-added.svg

<svg xmlns="http://www.w3.org/2000/svg" width="32" height="32" version="1.1" viewBox="0 0 16 16">
 <g transform="translate(0 -1036.4)">
  <circle fill="#af7f4c" cx="8" cy="1044.4" r="7"/>
  <path fill="#fff" d="m7 3v4h-4v2h4v4h2v-4h4v-2h-4v-4h-2z" transform="translate(0 1036.4)"/>
 </g>
</svg>

<svg xmlns="http://www.w3.org/2000/svg" width="32" height="32" version="1.1" viewBox="0 0 32 32">
 <g transform="scale(2)">
  <circle style="fill:#af7f4c" cx="8" cy="8" r="7"/>
  <path style="fill:#ffffff" d="M 7,3 V 7 H 3 V 9 H 7 V 13 H 9 V 9 H 13 V 7 H 9 V 3 Z"/>
 </g>
</svg>
